X:1
T:A Hard Life
T:A Hard Life
T:The Balkan Princess
T:Paul Rubens
C:Paul Rubens
%%score 1 [ 2 3 ] { ( 4 6 ) | 5 }
L:1/8
Q:1/4=110
M:4/4
K:G
V:1 treble-8 nm="Tenor"
V:2 treble nm="Kvinner"
V:3 bass nm="Menn"
V:4 treble nm="Piano"
V:6 treble 
V:5 bass 
V:1
"^Allegro ma non troppo" z2 |: z8 | z8 | z8 | z8 || B3 ^A B4 | c d B A G4 | B3 ^A (B3 ^B) | %8
w: |||||1.Peo- ple say|That the world's all fat,|I don't feel A|
w: |||||2.Mu- sic halls|Seem to be the rage;|Ac- tors now _|
 ^c =A F E D4 | (A/ A/) ^G A G A (d2 d) | E ^D E D E (B2 B) | A!<(! F G A B G A B | %12
w: lit- tle bit like that!|My _ life's full of wor- ry, _|Full of vain re- gret- ting! _|Why should peo- ple hur- ry And get|
w: Quite for- sake the stage.|Man- a- gers give good pay- ment For|turns a- ris- to- crat- ic, Pro-|vi- ded that the rai- ment, Is suf-|
 ^c A!<)! B c d D || B, =C | !tenuto!D4 !tenuto!B2 !tenuto!A !tenuto!G | %15
w: thin like me, thro' fret- ting?|It's a|hard life! It's a|
w: fi- cient- ly rheu- ma- tic;|It's a|hard life! It's a|
 !tenuto!F4 !tenuto!c2 B A | G A B d e d c B | c6 B A | d e d B A G E G | d e d B A G G A | %20
w: hard life! Al- ways|watch- ing o- ther peo- ple drink and|feed! All day|stand- ing still and wait- ing For the|tips that nev- er come Oh, it's a|
w: hard life! You must|dress in pale- blue lime- light and a|bead, And you|ne- ver get a pen- ny More than|fif- ty pounds a time \- Oh, it's a|
 B B !>!B2 !>!B2 !>!B2 | G6 z2 | z8 | z8 | z8 | z8 | z8 | z8 | z8 | z8 :| z8 | z8 | z8 | z8 || %34
w: ve- ry hard life in-|deed!|||||||||||||
w: ve- ry hard life in-|deed!|||||||||||||
 B3 ^A B4 | c d B A G4 | B3 ^A B4 | ^c =A F E D4 | A ^G A G A d3 | E ^D E D E B3 | %40
w: 3.Ev- 'ry one|Seems to want to fly;|As for me,|I can't make out why!|I'm not keen on dy- ing,|I say "Keep me from it!"|
w: ||||||
 A!<(! F G A B G A B | ^c A B c!<)! d D || B, C | !tenuto!D4 !tenuto!B2 !tenuto!A !tenuto!G | %44
w: I don't fan- cy fly- ing In- to|Mis- ter Hal- ley's Com- et.|It's a|hard life! It's a|
w: ||||
 !tenuto!F4 !tenuto!c2 B A | G A B d e d c B | c6 B A | d e d B A G E G | d e d B A G G A | %49
w: hard life! Ter- ra|fir- ma we shall not much long- er|need! If some|day we have an ac- ci- dent We'll|find out to our cost, That it's a|
w: |||||
 B B !>!B2 !>!B2 !>!B2 | !>!G6 z2 | z8 | z8 | z8 | z8 | z8 | z8 | z8 | z8 |] %59
w: ve- ry hard world in-|deed!|||||||||
w: ||||||||||
V:2
 z2 |: z8 | z8 | z8 | z8 || z8 | z8 | z8 | z8 | z8 | z8 | z8 | z4 z2 || z2 | z8 | z8 | z8 | z8 | %18
w: ||||||||||||||||||
w: ||||||||||||||||||
 z8 | z8 | z8 | z4 z2!f! B, C | !tenuto!D4 !tenuto!B2 !tenuto!A !tenuto!G | %23
w: |||It's a|hard life! It's a|
w: |||It's a|hard life! It's a|
 !tenuto!F4 !tenuto!c2 B A | G A B d e d c B | c6 B A | d e d B A G E G | d e d B A G G A | %28
w: hard life! Al- ways|watch- ing o- ther peo- ple drink and|feed! All day|stand- ing still and wait- ing For the|tips that nev- er come Oh, it's a|
w: hard life! You must|dress in pale- blue lime- light and a|bead, And you|ne- ver get a pen- ny More than|fif- ty pounds a time \- Oh, it's a|
 B B !>!B2 !>!B2 !>!B2 | G6 z2 :| z8 | z8 | z8 | z8 || z8 | z8 | z8 | z8 | z8 | z8 | z8 | z6 || %42
w: ve- ry hard life in-|deed!|||||||||||||
w: ve- ry hard life in-|deed!|||||||||||||
 z2 | z8 | z8 | z8 | z8 | z8 | z8 | z8 | z4 z2!f! B, C | %51
w: ||||||||It's a|
w: |||||||||
 !tenuto!D4 !tenuto!B2 !tenuto!A !tenuto!G | !tenuto!F4 !tenuto!c2 B A | G A B d e d c B | c6 B A | %55
w: hard life! It's a|hard life! Ter- ra|fir- ma we shall not much long- er|need! If some|
w: ||||
 d e d B A G E G | d e d B A G G A | B B !>!B2 !>!B2 !>!B2 | !>!G6 z2 |] %59
w: day we have an ac- ci- dent We'll|find out to our cost, That it's a|ve- ry hard world in-|deed!|
w: ||||
V:3
 z2 |: z8 | z8 | z8 | z8 || z8 | z8 | z8 | z8 | z8 | z8 | z8 | z4 z2 || z2 | z8 | z8 | z8 | z8 | %18
w: ||||||||||||||||||
w: ||||||||||||||||||
 z8 | z8 | z8 | z4 z2!f! B,, C, | !tenuto!D,4 !tenuto!B,2 !tenuto!A, !tenuto!G, | %23
w: |||It's a|hard life! It's a|
w: |||It's a|hard life! It's a|
 !tenuto!F,4 !tenuto!C2 B, A, | G, A, B, D E D C B, | C6 B, A, | D E D B, A, G, E, G, | %27
w: hard life! Al- ways|watch- ing o- ther peo- ple drink and|feed! All day|stand- ing still and wait- ing For the|
w: hard life! You must|dress in pale- blue lime- light and a|bead, And you|ne- ver get a pen- ny More than|
 D E D B, A, G, G, A, | B, B, !>!B,2 !>!B,2 !>!B,2 | G,6 z2 :| z8 | z8 | z8 | z8 || z8 | z8 | z8 | %37
w: tips that nev- er come Oh, it's a|ve- ry hard life in-|deed!||||||||
w: fif- ty pounds a time \- Oh, it's a|ve- ry hard life in-|deed!||||||||
 z8 | z8 | z8 | z8 | z6 || z2 | z8 | z8 | z8 | z8 | z8 | z8 | z8 | z4 z2!f! B,, C, | %51
w: |||||||||||||It's a|
w: ||||||||||||||
 !tenuto!D,4 !tenuto!B,2 !tenuto!A, !tenuto!G, | !tenuto!F,4 !tenuto!C2 B, A, | %53
w: hard life! It's a|hard life! Ter- ra|
w: ||
 G, A, B, D E D C B, | C6 B, A, | D E D B, A, G, E, G, | D E D B, A, G, G, A, | %57
w: fir- ma we shall not much long- er|need! If some|day we have an ac- ci- dent We'll|find out to our cost, That it's a|
w: ||||
 B, B, !>!B,2 !>!B,2 !>!B,2 | !>!G,6 z2 |] %59
w: ve- ry hard world in-|deed!|
w: ||
V:4
!mf! D!<(!E |: ([CF]4 [ce]2)!<)! [Bd][Ac] | (cB^Ac B2) B,C | (D4 B2) (AB) | [B,G]4 [GBg]2 z2 || %5
!p! [DGB]3 [^CG^A] [DGB]4 | [Ec][Fd][DB][CA] [B,G]4 | [DGB]3 [^CG^A] (B3 ^B) | %8
 [G^c][^C=A][A,CF][G,CE] [F,D]4 | [=CDA][CD^G][CDA][CDG] [CDA] [CFd]3 | %10
 [B,E][B,^D][B,E][B,D] [B,E] [B,EB]3 | A!<(!FGA BGAB | ^cA!<)!Bc !arpeggio![=CFd]D || B,C | %14
 !tenuto!D4 !tenuto!B2 !tenuto!A!tenuto!G | !tenuto!F4 !tenuto!c2 BA | %16
 G[DA][GB][Bd] e[DGBd]c[D^EB] | c6 B[DFA] | d[Ge]d[DGB] A[EG]E[EG] | d[Ge]d[DGB] [^CGA]2 GA | %20
 !>![B,GB]2 !>![^CGB]2 !>![=CDB]2 !>![CDB]2 | !>![B,G]e/d/ BG EDB,C | D4 B2 AG | F4 c2 BA | %24
 G[DA][GB][Bd] e[DGBd]c[D^EB] | c6 B[DFA] | d[Ge]d[DGB] A[EG]E[EG] | d[Ge]d[DGB] [^CGA]2 GA | %28
 !>![B,GB]2 !>![^CGB]2 !>![=CDB]2 !>![CDB]2 | !>![B,G]4 [GBg]2!mf! DE :| %30
!<(! ([CF]4 [ce]2)!<)! [Bd][Ac] | (cB^Ac B2) B,C | (D4 B2) (AB) | [B,G]4 [GBg]2 z2 || %34
 [DGB]3 [^CG^A] [DGB]4 | [Ec][Fd][DB][CA] [B,G]4 |!p! [DGB]3 [^CG^A] [DGB]4 | %37
 [G^c][^C=A][A,CF][G,CE] [F,D]4 | [=CDA][CD^G][CDA][CDG] [CDA] [CFd]3 | %39
 [B,E][B,^D][B,E][B,D] [B,E] [B,EB]3 | A!<(!FGA BGAB | ^cAB!<)!c !arpeggio![=CFd]D || B,C | %43
 !tenuto!D4 !tenuto!B2 !tenuto!A!tenuto!G | !tenuto!F4 !tenuto!c2 BA | %45
 G[DA][GB][Bd] e[DGBd]c[D^EB] | c6 B[DFA] | d[Ge]d[DGB] A[EG]E[EG] | d[Ge]d[DGB] [^CGA]2 GA | %49
 !>![B,GB]2 !>![^CGB]2 !>![=CDB]2 !>![CDB]2 | !>![B,G]!<(!e/d/ BG ED!<)!!f!B,C | %51
 !tenuto!D4 !tenuto!B2 !tenuto!A!tenuto!G | !tenuto!F4 !tenuto!c2 BA | %53
 G[DA][GB][Bd] e[DGBd]c[D^EB] | c6 B[DFA] | d[Ge]d[DGB] A[EG]E[EG] | d[Ge]d[DGB] [^CGA]2 GA | %57
 !>![B,GB]2 !>![^CGB]2 !>![=CDB]2 !>![CDB]2 | !>![B,G]4 [GBg]2 z2 |] %59
V:5
 z2 |: A,,D,D,,D, F,,D,D,,D, | G,,D,D,,D, G,,D,D,,D, | D,,D,D,,D, D,,D,D,,D, | %4
 G,,2 D,,2 G,,,2 z2 || G,,D,D,,D, G,,D,D,,D, | A,,D,D,,D, G,,D,D,,D, | G,,D,D,,D, G,,D,D,,D, | %8
 E,,A,,A,,,A,, (D,,A,,D,F,) | F,,D,D,,D, F,,D,D,,D, | G,,D,D,,D, G,,D,D,,D, | %11
 [F,,F,]2 [F,,F,]2 [E,,E,]2 [E,,E,]2 | [A,,A,]2 [A,,A,]2 [D,,D,]2 || z2 | G,,D,D,,D, G,,D,D,,D, | %15
 A,,D,D,,D, A,,D,D,,D, | G,,D,D,,D, G,,D,^G,,D, | A,,D,D,,D, A,,D,D,C | %18
 B,,[G,B,]B,,[G,B,] C,[G,C]C,[G,C] | B,,[G,B,]B,,[G,B,] [E,A,]2 [E,,E,][_E,,_E,] | %20
 !>![D,,D,]2 !>![D,,=E,]2 !>![D,,^E,]2 !>![D,F,]2 | !>![G,,D,G,]2 z2 z4 | G,,D,D,,D, G,,D,D,,D, | %23
 A,,D,D,,D, A,,D,D,,D, | G,,D,D,,D, G,,D,^G,,D, | A,,D,D,,D, A,,D,D,C | %26
 B,,[G,B,]B,,[G,B,] C,[G,C]C,[G,C] | B,,[G,B,]B,,[G,B,] [E,A,]2 [E,,E,][_E,,_E,] | %28
 !>![D,,D,]2 !>![D,,=E,]2 !>![D,,^E,]2 !>![D,F,]2 | !>![G,,D,]2 D,,2 G,,,2 z2 :| %30
 A,,D,D,,D, F,,D,D,,D, | G,,D,D,,D, G,,D,D,,D, | D,,D,D,,D, D,,D,D,,D, | G,,2 D,,2 G,,,2 z2 || %34
 G,,D,D,,D, G,,D,D,,D, | A,,D,D,,D, G,,D,D,,D, | G,,D,D,,D, G,,D,D,,D, | %37
 E,,A,,A,,,A,, (D,,A,,D,F,) | F,,D,D,,D, F,,D,D,,D, | G,,D,D,,D, G,,D,D,,D, | %40
 [F,,F,]2 [F,,F,]2 [E,,E,]2 [E,,E,]2 | [A,,A,]2 [A,,A,]2 [D,F,]2 || z2 | G,,D,D,,D, G,,D,D,,D, | %44
 A,,D,D,,D, A,,D,D,,D, | G,,D,D,,D, G,,D,^G,,D, | A,,D,D,,D, A,,D,D,C | %47
 B,,[G,B,]B,,[G,B,] C,[G,C]C,[G,C] | B,,[G,B,]B,,[G,B,] [E,A,]2 [E,,E,][_E,,_E,] | %49
 !>![D,,D,]2 !>![D,,=E,]2 !>![D,,^E,]2 !>![D,F,]2 | !>![G,,D,G,]2 z2 z4 | G,,D,D,,D, G,,D,D,,D, | %52
 A,,D,D,,D, A,,D,D,,D, | G,,D,D,,D, G,,D,^G,,D, | A,,D,D,,D, A,,D,D,C | %55
 B,,[G,B,]B,,[G,B,] C,[G,C]C,[G,C] | B,,[G,B,]B,,[G,B,] [E,A,]2 [E,,E,][_E,,_E,] | %57
 !>![D,,D,]2 !>![D,,=E,]2 !>![D,,^E,]2 !>![D,F,]2 | !>!G,,2 D,,2 G,,,2 z2 |] %59
V:6
 x2 |: x8 | G6 x2 | z B, z B, z [CD] z [CF] | x8 || x8 | x8 | x8 | x8 | x8 | x8 | D2 D2 [DG]2 x2 | %12
 [^CG]2 [CG]2 x2 || x2 | z B, z B, z [B,D] z [B,D] | z D z [CD] z [CF] z [CF] | x8 | %17
 z [CF] z [CF] z [CF] x2 | x8 | x6 =C2 | x8 | x8 | z B, z B, z [B,D] z [B,D] | %23
 z D z [CD] z [CF] z [CF] | x8 | z [CF] z [CF] z [CF] x2 | x8 | x6 =C2 | x8 | x8 :| x8 | G6 x2 | %32
 z B, z B, z [CD] z [CF] | x8 || x8 | x8 | x8 | x8 | x8 | x8 | D2 D2 [DG]2 x2 | [^CG]2 [CG]2 x2 || %42
 x2 | z B, z B, z [B,D] z [B,D] | z D z [CD] z [CF] z [CF] | x8 | z [CF] z [CF] z [CF] x2 | x8 | %48
 x6 =C2 | x8 | x8 | z B, z B, z [B,D] z [B,D] | z D z [CD] z [CF] z [CF] | x8 | %54
 z [CF] z [CF] z [CF] x2 | x8 | x6 =C2 | x8 | x8 |] %59

